X:1
T:Liskeard, 87.87 D
T:Liskeard, 87.87 D
T:William A. Post, 1906
T:Public Domain Courtesy of the Cyber Hymnal™
C:William A. Post, 1906
Z:Public Domain
Z:Courtesy of the Cyber Hymnal™
%%score ( 1 2 ) ( 3 4 )
L:1/8
Q:1/4=100
M:4/4
K:Ab
V:1 treble 
V:2 treble 
V:3 bass 
V:4 bass 
V:1
 [CE]2 [CE][CE] [CA]2 [CG]>[CA] | [EG]2 [DF]4 z2 | [B,D]2 [B,D][B,D] [B,G]2 [DF]>[DF] | [CE]6 z2 | %4
 [CE]2 [CE][CE] [CA]2 [CG]>[CA] | [EG]2 [DF]4 z2 | [CE]2 [Fd][Ec] [=DB] [DF]2 [_DG] | A6 z2 | %8
 [FA]2 [=EG][FA] [Fd]2 [FA]>[_FB] | [Ec]2 [CE]4 z2 | [CE]2 [CF][CG] [FA]2 [DB][DF] | (B4 =B2) z2 | %12
 [Ac]2 [A=B][Ac] A2 [Ac]>[_Ge] | [Fe]2 [Fd]4 z2 | [CE]2"^riten." [Fd][Ec] [=DB] [DF]2 [_DG] | %15
 A4 C2 z2 |] %16
V:2
 x8 | x8 | x8 | x8 | x8 | x8 | x8 | (CE=D_D C2) x2 | x8 | x8 | x8 | D6 x2 | x4 A2 x2 | x8 | x8 | %15
 CE=D_D x4 |] %16
V:3
 (A,,E,)A,E, (A,,E,)A,E, | (D,F,) (A,F,D,F,A,F,) | (E,,E,)G,E, (E,,E,)G,E, | (A,,C,E,A,CA,E,C,) | %4
 (A,,E,)A,E, (A,,E,)A,E, | (D,F,) (A,F,D,F,A,F,) | [E,A,]2 z2 [B,,A,]3 [E,B,] | %7
 (A,_G,F,_F, E,2) z2 | [D,D]2 [D,D][D,D] [D,A,]2 [D,A,]>[D,A,] | [A,,A,]2 [A,,A,]4 z2 | %10
 A,2 A,A, [F,C]2 [B,,A,][B,,A,] | [E,G,]6 z2 | [A,E]2 [A,=D][A,E] [A,C]2 [A,E]>[C,A,] | %13
 [D,A,]2 [D,A,]4 z2 | [E,A,]2 [E,A,][E,A,] [B,,A,] [B,,B,]2 [E,B,] | (A,_G,F,_F, E,2) z2 |] %16
V:4
 x8 | x8 | x8 | x8 | x8 | x8 | x8 | A,,6 x2 | x8 | x8 | A,2 A,A, x4 | x8 | x8 | x8 | x8 | %15
 A,,6 x2 |] %16

